build/system/AttachFileOutline.svg

<svg xmlns="http://www.w3.org/2000/svg" fill="none" viewBox="0 0 24 24" focusable="false"><path d="M0 0H24V24H0z"/><path fill="#74767B" fill-rule="evenodd" d="M15.856 5.21181C14.9383 4.29408 13.4503 4.29408 12.5326 5.21181L6.38078 11.3636C4.95537 12.7891 4.95537 15.1001 6.38078 16.5255L7.72428 17.869C9.1497 19.2944 11.4607 19.2944 12.8862 17.869L18.6844 12.0707C18.9383 11.8169 19.3498 11.8169 19.6037 12.0707C19.8575 12.3246 19.8575 12.7361 19.6037 12.99L13.8054 18.7883C11.8723 20.7214 8.73814 20.7214 6.80504 18.7883L5.46154 17.4448C3.52845 15.5117 3.52844 12.3775 5.46154 10.4444L11.6134 4.29257C13.0388 2.86716 15.3498 2.86716 16.7752 4.29257L17.4824 4.99968C18.9078 6.42509 18.9078 8.73614 17.4824 10.1616L11.6841 15.9598C10.9226 16.7214 9.68789 16.7214 8.92636 15.9598L8.28997 15.3234C7.52845 14.5619 7.52844 13.3272 8.28997 12.5657L13.7347 7.121C13.9885 6.86716 14.4001 6.86716 14.6539 7.121C14.9078 7.37484 14.9078 7.7864 14.6539 8.04024L9.20921 13.485C8.95536 13.7388 8.95537 14.1504 9.20921 14.4042L9.8456 15.0406C10.0994 15.2944 10.511 15.2944 10.7648 15.0406L16.5631 9.24232C17.4808 8.32459 17.4808 6.83665 16.5631 5.91892L15.856 5.21181Z"/></svg>

<svg xmlns="http://www.w3.org/2000/svg" fill="none" viewBox="0 0 24 24" focusable="false"><path fill="#74767B" fill-rule="evenodd" d="M15.85 5.21c-.92-.92-2.4-.92-3.32 0l-6.15 6.15a3.64 3.64 0 0 0 0 5.16l1.34 1.34a3.64 3.64 0 0 0 5.16 0l5.8-5.79a.64.64 0 0 1 .92 0c.25.25.25.66 0 .92l-5.8 5.79a4.937 4.937 0 0 1-7 0l-1.34-1.34a4.937 4.937 0 0 1 0-7l6.15-6.15a3.64 3.64 0 0 1 5.16 0l.71.7a3.67 3.67 0 0 1 0 5.17l-5.8 5.79c-.76.77-2 .77-2.76 0l-.63-.63c-.77-.76-.77-2 0-2.76l5.44-5.44a.64.64 0 0 1 .92 0c.25.25.25.66 0 .92L9.2 13.48c-.25.25-.25.67 0 .92l.64.64c.25.25.67.25.92 0l5.8-5.8c.92-.92.92-2.41 0-3.33z"/></svg>
